!!!OTL: Johannistagslied Ich bin ein lustiger Weidemann
!!!ARE: Europa, Mitteleuropa, Deutschland, Harz, St. Andreasberg
!!!SCT: D0235
!!!YEM: Copyright 1995, estate of Helmut Schaffrath.
**kern
*ICvox
*Ivox
*M6/8
*k[f#]
*G:
{8d
=1
4g
8g
8g
8a
8b
=2
8b
8a
8a
4a
8dd
=3
4b
8b
8a
8g
8a
=4
4.g
4r}
{8d
=5
4g
8g
8g
8a
8b
=6
8b
8a
8a
4a
8dd
=7
4b
8b
8a
8g
8a
=8
4.g
4r}
{8b
=9
4a
8a
4a
8a
=10
8a
8b
8cc#
4dd}
{8b
=11
4a
8a
4a
8a
=12
8a
8b
8cc#
4.dd
=13
4ffx#
8r
4r}
{8d
=14
4g
8b
4b
8dd
=15
4.dd
4b
8dd
=16
4ee
8dd
4cc
8f#
=17
4.a
4g}
{8d
=18
4g
8b
4b
8dd
=19
4.dd
4b
8dd
=20
4ee
8dd
4cc
8f#
=21
4.a
4g}
==
!!!AGN: Ansinge - Lied
!! moduliert in die Dominanttonart; Sonderzeichen in der Notation     (Glissandi) ; metrisch
!!freie Zeile 262 durch "laut gerufenen" Ton     mit Fermate; Inzipit = Variante zum Lied
!!    Keine Variante zu den beiden folgenden Liedern !! (DVA-Signatur 235c)
!!!ONB: ESAC (Essen Associative Code) Database: DVA
!!!AMT: compound duple
!!!AIN: vox
!!!EED: Helmut Schaffrath
!!!EEV: 1.0
*-
!!!title: @{OTL} [@{SCT}]
